X:1
T:Miss Admiral Gordon's Strathspey
T:Miss Admiral Gordon's Strathspey
T:Of a' the airts the wind can blaw
T:William Marshall (c.1775)
C:William Marshall (c.1775)
%%score 1 2
L:1/8
M:4/4
K:A
V:1 treble 
V:2 bass 
V:1
 E |"A" A/A/A .A<.A A>E A<f |"A" (e<c) (TB>A)"D"{G} F2 (F>E) |"A" A/A/A .A.A A>E A<f | %4
"A" e>f a<c"E7" e2 (e>f) |"A" e>f a<c (e<c) (TB>A) |"E7" TB>c (d/c/)(B/A/)"D"{G} F2 (FE) | %7
"A" A/A/A (.[CA].A) [CA]>E A<f |"E7" e<c TB>c [CA]2 [CA]E |]"A" (C>E) (A>E)"D" (TF>E)"A" (A>E) | %10
"A" (c>e) (d/c/)(B/A/)"D"{G} F2 (FE) |"A" (C>E) (A>E)"D" (TF>E)"A" (A>E) | %12
"A" c>d (e/f/)(g/a/)"E7"{f} e2 (e>g) |"A" (a>g) (Tf>e) (Tf>e) (d>c) | %14
"E7" TB>c (d/c/)(B/A/)"D"{G} F2 FE |"A" A/A/A (.[CA].A) [CA]>E A<f |"E7" e<c TB>c [CA]2 [CA] |] %17
V:2
 z | A,,2 A,2 A,,2 C,D, | A,,2 B,,C, D,2 D,,2 | A,,2 A,2 A,,2 A,2 | A,,2 A,2 A,,A, CD | %5
 CD C2 A,2 DC | G,A, B,C D2 D,2 | A,,2 A,2 A,,2 C,D, | E,2 E,,2 A,,2 A, z |] %9
 ([A,,A,,]2 C,2) D,2 C,2 | A,,2 B,,C, D,2 D,,2 | ([A,,A,,]2 C,2) D,2 C,2 | A,,2 A,2 G,2 E,E | %13
 FE DC DC B,A, | G,A, B,C D2 D,2 | A,,2 A,2 A,,2 C,D, | E,2 E,,2 A,,2 A, |] %17

